X:02
T:Neil Gow’s Reel. 2voices. Dix.02
M:C
L:1/8
Q:1/4=120
S:Anon. MS dated 1811, from Dixon collection, Holton le Moor, Lincs.
R:Reel
N:Repeat marks added at start
N:First note in final bar of second voice moved back to previous bar
O:England;Lincolnshire;Holton le Moor
Z:vmp.R.Greig 2010 <http://www.village-music-project.org.uk>
K:Eb
[V:1]|:c|B<Ge<B c<FF<c|B<Ge<Bc2ce|B<Ge<B c<FF<d|e/d/c/B/ eEE2E:|
[V:2]|:z|E,2G,,2A,,2B,,2|E,2G,2A,2F,2|E,2G,,2A,,2B,,2|E,2B,,2E,,2E,,:|
[V:1]|:F|E<EG<E F<CC<F|E<EE<E e<Bc<e|B<eG<E F<CC<d|e/d/c/B/ eGE2E:|
[V:2]|:z|E,2E,2A,,2A,,2|E,2E,2[F,2D,2][B,2E,2]|E,2E,2G,2B,,2|B,,2E,2E,2E,,:|

